X: 138
T:Peter Feeney's Dream
M:4/4
L:1/8
C:Trad.
S:Jean Carignan, posted by Chris Ricker
R:Reel
Z:ABC: Chris Ricker
K:D
|:dedc BAFE|DEFD EA, ~A,2|DFAG FAdc|Bfed cgfe|!
dedc BAFE|DEFD EA, ~A,2|DEFA dBAG|(3FGF (3EFE D3 c:||!
|: &quot;tr&quot;dcde fdfa|d'dd'c' bAa2|A2 (3cBA eA (3cBA|EAce agfe|!
&quot;tr&quot;dcde fdfa|d'dd'c' bA a2|
AB (3ccd ef (3ggf|1agfe d2Ac:|2agfe d2 (3ABc||!
 |:|&quot;variation of first part&quot;(3ded (3cdc(3BcB (3ABA|(3GAG 
(3FGF EA,CE|DFAG FAdc|Bfed cgfe|!
dedc BAFE|DEFD EA, ~A,2|DEFA dBAG|&quot;go back to first 
part no repeat&quot;(3FGF (3EFE D3 c||!
